icons/mini/tv.svg

<svg width="20" height="20" viewBox="0 0 20 20" fill="none" xmlns="http://www.w3.org/2000/svg">
<path d="M4 5H16V12H4V5Z" fill="#0F172A"/>
<path fill-rule="evenodd" clip-rule="evenodd" d="M1 3.5C1 2.67157 1.67157 2 2.5 2H17.5C18.3284 2 19 2.67157 19 3.5V13.5C19 14.3284 18.3284 15 17.5 15H12V16.5H15.25C15.6642 16.5 16 16.8358 16 17.25C16 17.6642 15.6642 18 15.25 18H4.75C4.33579 18 4 17.6642 4 17.25C4 16.8358 4.33579 16.5 4.75 16.5H8V15H2.5C1.67157 15 1 14.3284 1 13.5V3.5ZM17.5 3.5L2.5 3.5V13.5H17.5V3.5Z" fill="#0F172A"/>
</svg>

<svg xmlns="http://www.w3.org/2000/svg" viewBox="0 0 20 20" fill="currentColor" aria-hidden="true" data-slot="icon">
  <path d="M4 5h12v7H4V5Z"/>
  <path fill-rule="evenodd" d="M1 3.5A1.5 1.5 0 0 1 2.5 2h15A1.5 1.5 0 0 1 19 3.5v10a1.5 1.5 0 0 1-1.5 1.5H12v1.5h3.25a.75.75 0 0 1 0 1.5H4.75a.75.75 0 0 1 0-1.5H8V15H2.5A1.5 1.5 0 0 1 1 13.5v-10Zm16.5 0h-15v10h15v-10Z" clip-rule="evenodd"/>
</svg>
